X:48
%%etbk:tnset id:16,pos:2,rep:3x,ant:
%%etbk:wsite http://www.thesession.org/tunes/display/462
%%etbk:pldat 2014-09-25T18:15,2013-05-01T17:20
T: Dunmore Lasses, The
Z: Piano Box Version by Martin Fleischmann
H: Created 2013-02-19 /  Last Modified 2013-02-19
M: 4/4
L: 1/8
R: reel
K: Emin
|:"em"!1!E!2!E!1!EF !3!GFG!4!A | !2!B!5!ee2 Bee2 | !1!E3F !3!G2!5!BG | "D"!4!A2BA !3!G!1!E!2!F!1!D |
"em"!1!E!2!E!2!EF !3!GFG!4!A | !2!B!5!eed !5!e2!2!ef | !4!ge !3!(3.f.e.d !5!e!2!B!4!d!2!B |1"D" !1!A!3!cB!1!A !3!G!1!E!2!F!1!D:|2 "D"!1!AcB!1!A "em"!3!G!1!EE2 |
|:"em"!4!gfeg !3!fe!1!d!2!e | !1!B!2!eee !1!B!2!eee | !4!gfeg !3!fe!1!d!2!B | "D"!1!AcB!1!A "em"!3!G!1!EE2 |
"em"!4!gfeg !3!fe!1!d!2!e | !1!B!2!ee!1!d !2!e2ef | !4!ge !3!(3.f.e.d !5!e!2!B!4!d!2!B | "D"!1!AcB!1!A "em"!3!G!1!EE2 :|


